img/pseudo-02.svg

<svg width="38" height="52" viewBox="0 0 38 52" fill="none" xmlns="http://www.w3.org/2000/svg">
<path opacity="0.08" d="M30.9645 43.495C31.9679 43.495 32.7262 43.775 33.2395 44.335C33.7529 44.895 33.9512 45.63 33.8345 46.54L33.1345 52H0.514531L0.899531 48.955C0.992865 48.3483 1.1912 47.7067 1.49453 47.03C1.8212 46.3533 2.32286 45.735 2.99953 45.175L18.5745 29.95C20.1145 28.4567 21.4445 27.0683 22.5645 25.785C23.6845 24.4783 24.6062 23.2067 25.3295 21.97C26.0529 20.7333 26.5895 19.485 26.9395 18.225C27.2895 16.965 27.4645 15.6117 27.4645 14.165C27.4645 12.3217 27.0329 10.8983 26.1695 9.895C25.3062 8.89166 24.0345 8.39 22.3545 8.39C21.5379 8.39 20.7679 8.53 20.0445 8.81C19.3445 9.09 18.6912 9.475 18.0845 9.965C17.5012 10.455 16.9762 11.0383 16.5095 11.715C16.0429 12.3683 15.6695 13.08 15.3895 13.85C14.8295 14.97 14.1879 15.7167 13.4645 16.09C12.7412 16.4633 11.7612 16.545 10.5245 16.335L5.69453 15.495C6.34786 13.0217 7.25786 10.8633 8.42453 9.02C9.61453 7.17667 11.0029 5.63667 12.5895 4.4C14.1762 3.16333 15.9262 2.24166 17.8395 1.635C19.7529 1.005 21.7712 0.689997 23.8945 0.689997C25.9479 0.689997 27.7912 1.005 29.4245 1.635C31.0579 2.24166 32.4345 3.105 33.5545 4.225C34.6979 5.32166 35.5729 6.65166 36.1795 8.215C36.7862 9.755 37.0895 11.4583 37.0895 13.325C37.0895 15.4717 36.7745 17.4317 36.1445 19.205C35.5379 20.955 34.7095 22.6233 33.6595 24.21C32.6095 25.7733 31.3845 27.29 29.9845 28.76C28.5845 30.2067 27.1029 31.7 25.5395 33.24L13.8495 44.755C15.1095 44.3583 16.3695 44.055 17.6295 43.845C18.9129 43.6117 20.0795 43.495 21.1295 43.495H30.9645Z" fill="#262D33"/>
</svg>

<svg width="38" height="52" fill="none" xmlns="http://www.w3.org/2000/svg"><path opacity=".08" d="M30.965 43.495c1.003 0 1.761.28 2.274.84.514.56.712 1.295.596 2.205l-.7 5.46H.515L.9 48.955c.093-.607.291-1.248.595-1.925.326-.677.828-1.295 1.505-1.855L18.575 29.95c1.54-1.493 2.87-2.882 3.99-4.165 1.12-1.307 2.041-2.578 2.764-3.815a15.783 15.783 0 001.61-3.745c.35-1.26.526-2.613.526-4.06 0-1.843-.432-3.267-1.296-4.27-.863-1.003-2.134-1.505-3.814-1.505-.817 0-1.587.14-2.31.42a7.6 7.6 0 00-1.96 1.155 8.77 8.77 0 00-1.576 1.75 8.87 8.87 0 00-1.12 2.135c-.56 1.12-1.201 1.867-1.925 2.24-.723.373-1.703.455-2.94.245l-4.83-.84c.654-2.473 1.564-4.632 2.73-6.475 1.19-1.843 2.579-3.383 4.165-4.62a16.671 16.671 0 015.25-2.765c1.914-.63 3.932-.945 6.056-.945 2.053 0 3.896.315 5.53.945 1.633.607 3.01 1.47 4.13 2.59 1.143 1.097 2.018 2.427 2.624 3.99.607 1.54.91 3.243.91 5.11 0 2.147-.314 4.107-.944 5.88a22.244 22.244 0 01-2.486 5.005 34.51 34.51 0 01-3.674 4.55c-1.4 1.447-2.882 2.94-4.445 4.48L13.85 44.755c1.26-.397 2.52-.7 3.78-.91 1.283-.233 2.45-.35 3.5-.35h9.835z" fill="#262D33"/></svg>
